X:1
T:Menuet
C:S.L. Weiss (Dresden, 1.27)
L:1/4
Q:1/4=108 "Allegretto"
M:3/4
K:F
"II" a d ^c & D,2 E, | d A d & F,3 | a d e & F,2 G, | ^c =B/c/ A & A,3 | A ^c e & A,3 |
g f/g/ e & A,3- | a A g & A,3 | g/f/ e/f/ d & D,3 | e2 ^c & G, A,2 | !arpeggio![DAd]3 !fine! :|
|: a d "I" c & D,3 | c/B/ A/B/ G & G,3 | g c B & E,3 | B/A/ G/A/ F & F,3 | f c f & A,3 |
f B f & G,3 | A f/e/ f & F,3 | c f/e/ f & A,3 | B f/e/ f & G,3 | A f/e/ f & F,3 |
G f e & C,3 | [F,ff]3 & x3 !D.C.! :|]

